X: 1
T: Bo Mhin Na Toitean
R: strathspey
M: 4/4
L: 1/8
K: Ador
A2 e2 e2 dB|d2 ef ge a2|A2 e2 e2 dB|eg ed BA GB|
A2 e2 e2 dB|d2 ef ge a2|eg ed e/f/g ed|B2 A2 A2 BG:|
A2 a2 a2 ge|d2 ef ge a2|A2 a2 a2 ge|dg ed BA GB|
A2 a2 a2 ge|d2 ef ge a2|eg ed e/f/g ed|B2 A2 A2 BG:|


Tune 5252	Setting 17495

